X:194
L:1/8
Q:1/8=180
M:4/4
K:G
 G2 dG eGdG | G2 dB AGEF | G3 A BGBd |1 gedB AGEF :|2 gedB A2 Bd || g3 b a3 b | gabg agef | 
 g3 b a3 b | gedB A2 Bd | g3 b a3 b | gabg a2 ga | bgab gede | gedB AGEF |"^last time" G8 |]

